icons/category/icon_category-unknown_xxl_white.svg

<svg xmlns="http://www.w3.org/2000/svg" width="44" height="44" viewBox="0 0 44 44"><g fill="none" fill-rule="evenodd"><path d="M-2-2h48v48H-2z"/><path fill="#FFF" d="M21.938 11.312c-4.641 0-7.188 2.688-7.312 6.391h3.672c.125-1.906 1.422-3.125 3.438-3.125 1.969 0 3.281 1.172 3.281 2.797 0 1.547-.656 2.375-2.594 3.547-2.156 1.266-3.062 2.672-2.922 5.016L19.516 27h3.625v-.891c0-1.547.578-2.344 2.625-3.547 2.125-1.266 3.312-2.938 3.312-5.328 0-3.453-2.859-5.922-7.14-5.922zM21.5 29c-1.567 0-2.602.987-2.602 2.508 0 1.505 1.034 2.492 2.602 2.492 1.599 0 2.602-.987 2.602-2.492 0-1.521-1.003-2.508-2.602-2.508z" opacity=".3"/><path fill="#FFF" d="M22 0C9.869 0 0 9.869 0 22s9.869 22 22 22 22-9.869 22-22S34.131 0 22 0zm0 43C10.42 43 1 33.579 1 22S10.42 1 22 1s21 9.421 21 21-9.42 21-21 21z"/></g></svg>

<svg xmlns="http://www.w3.org/2000/svg" width="44" height="44" viewBox="0 0 44 44" fill="none"><rect width="44" height="44" fill="none"/>
<g clip-path="url(#clip0)">
<path fill-rule="evenodd" clip-rule="evenodd" d="M21.938 11.312C17.297 11.312 14.75 14 14.626 17.703H18.298C18.423 15.797 19.72 14.578 21.736 14.578C23.705 14.578 25.017 15.75 25.017 17.375C25.017 18.922 24.361 19.75 22.423 20.922C20.267 22.188 19.361 23.594 19.501 25.938L19.516 27H23.141V26.109C23.141 24.562 23.719 23.765 25.766 22.562C27.891 21.296 29.078 19.624 29.078 17.234C29.078 13.781 26.219 11.312 21.938 11.312ZM21.5 29C19.933 29 18.898 29.987 18.898 31.508C18.898 33.013 19.932 34 21.5 34C23.099 34 24.102 33.013 24.102 31.508C24.102 29.987 23.099 29 21.5 29Z" fill="white" fill-opacity="0.3"/>
<path fill-rule="evenodd" clip-rule="evenodd" d="M22 0C9.869 0 0 9.869 0 22C0 34.131 9.869 44 22 44C34.131 44 44 34.131 44 22C44 9.869 34.131 0 22 0ZM22 43C10.42 43 1 33.579 1 22C1 10.421 10.42 1 22 1C33.58 1 43 10.421 43 22C43 33.579 33.58 43 22 43Z" fill="white"/>
</g>
<defs>
<clipPath id="clip0">
<path d="M0 0H44V44H0V0Z" fill="white"/>
</clipPath>
</defs>
</svg>
